X:1
T:Down By The River
M:3/4
L:1/8
K:G
 dBG| E3/2- F/2 GA BG| B2 G D/2D/2 GB| d2 e2 cA| F3 dB G| E3/2- F/2- GA|\
 BG| A2 GB ce| d2 B2 AG| G3 z de| d2 B2 Bc| B2 G2 GG| _B2 A2 GB| A3 dB G|\
 E3/2- F/2- GA BG| A2 GG Be| d2 B2 AG| G3||
